X:15022
%10220
T:Manitoba Waltz
C:Andy De Jarlis
M:3/4
L:1/8
K:Cmaj
cd|e3 c GF|E2 d3 c|B3 A FD|A,4 BA|!
G3 ^F G^F|F3 E FG|E6 -|E4 cd|!
e3 c GF|E
